X:2023
T:Flowers of Edinburgh, The
O:england
C:Trad
S:Aly Bain Book
M:C
K:G
|:GE| D2 DE G2 GA | BGBd cBAG | FGFE DEFG |AFdF E2 GE |
D2 DE G2 GA | BGBd efge| dcBA GFGA |B2G2G2:|
d2 | g2g2 gbag | f2f2 fagf | edef gfed |B2e2e2 ge |
dBGB d3 d| edef g2 fe | dcBA GFGA | B2 G2 G2 d2 |
g2g2 gbag | f2f2 fagf | edef gfed |B2e2e2 ge |
dBGB d3 d| edef agfe |dcBA GFGA |B2G2G2||


